src/16/panel/psensor_hot.svg

<svg xmlns="http://www.w3.org/2000/svg" width="16" height="16"><defs><style id="current-color-scheme" type="text/css"></style></defs><path d="M8 0C6.338 0 5 1.338 5 3v4.008A4.999 4.999 0 0 0 3 11a5 5 0 0 0 4.652 4.982c.116.011.232.017.348.018a5 5 0 0 0 5-5 4.997 4.997 0 0 0-2-3.992V3c0-1.662-1.338-3-3-3zm0 2c.589 0 1 .411 1 1v5.008l.801.599A2.997 2.997 0 0 1 11 11.002a2.97 2.97 0 0 1-3.16 2.99l-.024-.004-.025-.002A2.972 2.972 0 0 1 5 11a2.998 2.998 0 0 1 1.2-2.393l.8-.599V3c0-.589.411-1 1-1z" fill="currentColor" color="#5294e2"/></svg>

<svg xmlns="http://www.w3.org/2000/svg" width="16" height="16" version="1.1">
 <defs>
  <style id="current-color-scheme" type="text/css">
   .ColorScheme-Text { color:#dfdfdf; } .ColorScheme-Highlight { color:#5294e2; }
  </style>
 </defs>
 <path style="fill:currentColor" class="ColorScheme-Highlight" d="M 8,0 C 6.338,0 5,1.338 5,3 V 7.008 C 3.7432,7.95 3.0025,9.429 3,11 3.0029,13.624 5.0343,15.8 7.652,15.982 7.768,15.993 7.884,15.999 8,16 10.761,16 13,13.761 13,11 12.998,9.429 12.257,7.95 11,7.008 V 3 C 11,1.338 9.662,0 8,0 Z M 8,2 C 8.589,2 9,2.4114 9,3 V 8.008 L 9.801,8.607 C 10.556,9.174 10.998,10.058 11,11.002 10.999,12.681 9.681,13.999 8.002,14 7.948,13.999 7.894,13.997 7.84,13.992 L 7.816,13.988 7.791,13.986 C 6.202,13.876 5.0027,12.593 5,11 5.0027,10.057 5.4448,9.173 6.1992,8.607 L 7,8.008 V 3 C 7,2.4114 7.411,2 8,2 Z"/>
</svg>
